static/img/kroki/1ef1b5cbd04681c3c81e3c35c7384699.svg

<?xml version="1.0" encoding="us-ascii" standalone="no"?><svg xmlns="http://www.w3.org/2000/svg" xmlns:xlink="http://www.w3.org/1999/xlink" contentStyleType="text/css" height="374px" preserveAspectRatio="none" style="width:184px;height:374px;" version="1.1" viewBox="0 0 184 374" width="184px" zoomAndPan="magnify"><defs/><g><!--class account--><g id="elem_account"><rect codeLine="23" fill="#3D176E" height="39.7891" id="account" rx="2.5" ry="2.5" style="stroke:#000D19;stroke-width:0.5;" width="107" x="38.5" y="167.79"/><ellipse cx="53.5" cy="187.6845" fill="#ADD1B2" rx="11" ry="11" style="stroke:#181818;stroke-width:1.0;"/><path d="M56.4688,193.3252 Q55.8906,193.622 55.25,193.7627 Q54.6094,193.9189 53.9063,193.9189 Q51.4063,193.9189 50.0781,192.2783 Q48.7656,190.622 48.7656,187.497 Q48.7656,184.372 50.0781,182.7158 Q51.4063,181.0595 53.9063,181.0595 Q54.6094,181.0595 55.25,181.2158 Q55.9063,181.372 56.4688,181.6689 L56.4688,184.3877 Q55.8438,183.8095 55.25,183.5439 Q54.6563,183.2627 54.0313,183.2627 Q52.6875,183.2627 52,184.3408 Q51.3125,185.4033 51.3125,187.497 Q51.3125,189.5908 52,190.6689 Q52.6875,191.7314 54.0313,191.7314 Q54.6563,191.7314 55.25,191.4658 Q55.8438,191.1845 56.4688,190.6064 L56.4688,193.3252 Z " fill="#000000"/><text fill="#D9B8FF" font-family="Helvetica" font-size="17" lengthAdjust="spacing" textLength="65" x="72.5" y="193.5698">account</text></g><!--class github_account--><g id="elem_github_account"><rect codeLine="26" fill="#3D176E" height="39.7891" id="github_account" rx="2.5" ry="2.5" style="stroke:#000D19;stroke-width:0.5;" width="170" x="7" y="328.58"/><ellipse cx="22" cy="348.4745" fill="#ADD1B2" rx="11" ry="11" style="stroke:#181818;stroke-width:1.0;"/><path d="M24.9688,354.1152 Q24.3906,354.412 23.75,354.5527 Q23.1094,354.7089 22.4063,354.7089 Q19.9063,354.7089 18.5781,353.0683 Q17.2656,351.412 17.2656,348.287 Q17.2656,345.162 18.5781,343.5058 Q19.9063,341.8495 22.4063,341.8495 Q23.1094,341.8495 23.75,342.0058 Q24.4063,342.162 24.9688,342.4589 L24.9688,345.1777 Q24.3438,344.5995 23.75,344.3339 Q23.1563,344.0527 22.5313,344.0527 Q21.1875,344.0527 20.5,345.1308 Q19.8125,346.1933 19.8125,348.287 Q19.8125,350.3808 20.5,351.4589 Q21.1875,352.5214 22.5313,352.5214 Q23.1563,352.5214 23.75,352.2558 Q24.3438,351.9745 24.9688,351.3964 L24.9688,354.1152 Z " fill="#000000"/><text fill="#D9B8FF" font-family="Helvetica" font-size="17" lengthAdjust="spacing" textLength="128" x="41" y="354.3598">github_account</text></g><!--class resource--><g id="elem_resource"><rect codeLine="29" fill="#3D176E" height="39.7891" id="resource" rx="2.5" ry="2.5" style="stroke:#000D19;stroke-width:0.5;" width="113" x="35.5" y="7"/><ellipse cx="50.5" cy="26.8945" fill="#ADD1B2" rx="11" ry="11" style="stroke:#181818;stroke-width:1.0;"/><path d="M53.4688,32.5352 Q52.8906,32.832 52.25,32.9727 Q51.6094,33.1289 50.9063,33.1289 Q48.4063,33.1289 47.0781,31.4883 Q45.7656,29.832 45.7656,26.707 Q45.7656,23.582 47.0781,21.9258 Q48.4063,20.2695 50.9063,20.2695 Q51.6094,20.2695 52.25,20.4258 Q52.9063,20.582 53.4688,20.8789 L53.4688,23.5977 Q52.8438,23.0195 52.25,22.7539 Q51.6563,22.4727 51.0313,22.4727 Q49.6875,22.4727 49,23.5508 Q48.3125,24.6133 48.3125,26.707 Q48.3125,28.8008 49,29.8789 Q49.6875,30.9414 51.0313,30.9414 Q51.6563,30.9414 52.25,30.6758 Q52.8438,30.3945 53.4688,29.8164 L53.4688,32.5352 Z " fill="#000000"/><text fill="#D9B8FF" font-family="Helvetica" font-size="17" lengthAdjust="spacing" textLength="71" x="69.5" y="32.7798">resource</text></g><!--reverse link resource to account--><g id="link_resource_account"><path codeLine="32" d="M92,65.05 C92,95.57 92,136.9 92,167.46 " fill="none" id="resource-backto-account" style="stroke:#FFAF37;stroke-width:2.0;"/><polygon fill="none" points="92,47.05,86,65.05,98,65.05,92,47.05" style="stroke:#FFAF37;stroke-width:2.0;"/></g><!--reverse link account to github_account--><g id="link_account_github_account"><path codeLine="33" d="M92,225.84 C92,256.36 92,297.69 92,328.25 " fill="none" id="account-backto-github_account" style="stroke:#FFAF37;stroke-width:2.0;"/><polygon fill="none" points="92,207.84,86,225.84,98,225.84,92,207.84" style="stroke:#FFAF37;stroke-width:2.0;"/></g><!--SRC=[XP1BRy8m48Jl-HMME4SYHMs8r0iWLUq5LQNtQcElYKLYH-jD4Ntyzq83o2GyZfxvF3kxXL4eiAfv8ogiSYGV-PMnDH1KOaBarZDNEX83hK6Fqgxvv2pV1EPGeNZ6yXFPIEWIxuMHAulUYxl0ce9SBSarLhNnJ63zraBB0JKhmVi9CvcyOGpAg2mVQzqbkw63aKhI1-nXZXJI7XaEXoh9kiZDKLVtFX8ByuKY2OysTuozchqH_zJLbZiYADbRzE1VxFWAIXcx5FU1zjPs8ejqeYyAK6wzepMKFXpZ6GaTRsgSzRR2RAnqUXP-kGH7SdSw0L9kFHRVKVIxbvQ6YoR_EECGUjUGn5OxlXv_uZW-94M7Vwrw6XRz0G00]--></g></svg>

<svg xmlns="http://www.w3.org/2000/svg" width="184" height="374" viewBox="0 0 184 374"><rect width="107" height="39.789" x="38.5" y="167.79" fill="#3D176E" rx="2.5" ry="2.5" style="stroke:#000d19;stroke-width:.5"/><circle cx="53.5" cy="187.685" r="11" fill="#ADD1B2" style="stroke:#181818;stroke-width:1"/><path d="M56.469 193.325q-.578.297-1.219.438-.64.156-1.344.156-2.5 0-3.828-1.64-1.312-1.657-1.312-4.782t1.312-4.781q1.328-1.656 3.828-1.656.703 0 1.344.156.656.156 1.219.453v2.719q-.625-.578-1.219-.844-.594-.281-1.219-.281-1.343 0-2.031 1.078-.687 1.062-.687 3.156t.687 3.172q.688 1.062 2.031 1.062.625 0 1.219-.265.594-.281 1.219-.86z"/><text x="72.5" y="193.57" fill="#D9B8FF" font-family="Helvetica" font-size="17" textLength="65">account</text><rect width="170" height="39.789" x="7" y="328.58" fill="#3D176E" rx="2.5" ry="2.5" style="stroke:#000d19;stroke-width:.5"/><circle cx="22" cy="348.474" r="11" fill="#ADD1B2" style="stroke:#181818;stroke-width:1"/><path d="M24.969 354.115q-.578.297-1.219.438-.64.156-1.344.156-2.5 0-3.828-1.64-1.312-1.657-1.312-4.782t1.312-4.781q1.328-1.656 3.828-1.656.703 0 1.344.156.656.156 1.219.453v2.719q-.625-.579-1.219-.844-.594-.281-1.219-.281-1.343 0-2.031 1.078-.687 1.062-.687 3.156t.687 3.172q.688 1.062 2.031 1.062.625 0 1.219-.265.594-.281 1.219-.86z"/><text x="41" y="354.36" fill="#D9B8FF" font-family="Helvetica" font-size="17" textLength="128">github_account</text><rect width="113" height="39.789" x="35.5" y="7" fill="#3D176E" rx="2.5" ry="2.5" style="stroke:#000d19;stroke-width:.5"/><circle cx="50.5" cy="26.895" r="11" fill="#ADD1B2" style="stroke:#181818;stroke-width:1"/><path d="M53.469 32.535q-.578.297-1.219.438-.64.156-1.344.156-2.5 0-3.828-1.64-1.312-1.657-1.312-4.782t1.312-4.781q1.328-1.656 3.828-1.656.703 0 1.344.156.656.156 1.219.453v2.719q-.625-.578-1.219-.844-.594-.281-1.219-.281-1.343 0-2.031 1.078-.687 1.062-.687 3.156T49 29.879q.688 1.062 2.031 1.062.625 0 1.219-.265.594-.281 1.219-.86z"/><text x="69.5" y="32.78" fill="#D9B8FF" font-family="Helvetica" font-size="17" textLength="71">resource</text><path fill="none" d="M92 65.05v102.41m0-120.41-6 18h12zm0 178.79v102.41m0-120.41-6 18h12z" style="stroke:#ffaf37;stroke-width:2"/></svg>
